tools/download-figma-icons/icons/solid/detached-house-alternative.svg

<svg width="25" height="24" viewBox="0 0 25 24" fill="none" xmlns="http://www.w3.org/2000/svg">
<path d="M23.7614 10.7025L12.5114 0.2025C12.2264 -0.0675 11.7764 -0.0675 11.4914 0.2025L0.241374 10.7025C-0.0661265 10.9875 -0.0811265 11.46 0.203874 11.76C0.488874 12.0675 0.961374 12.0825 1.26137 11.7975L3.00137 10.1775V23.25C3.00137 23.6625 3.33887 24 3.75137 24H6.37637V17.25C6.37637 16.8375 6.71387 16.5 7.12637 16.5H10.8764C11.2889 16.5 11.6264 16.8375 11.6264 17.25V24H20.2514C20.6639 24 21.0014 23.6625 21.0014 23.25V10.1775L22.7414 11.7975C22.8839 11.9325 23.0714 12 23.2514 12C23.4539 12 23.6489 11.9175 23.7989 11.76C24.0839 11.46 24.0689 10.9875 23.7614 10.7025ZM18.7514 14.25C18.7514 14.6625 18.4139 15 18.0014 15H14.2514C13.8389 15 13.5014 14.6625 13.5014 14.25V11.25C13.5014 10.8375 13.8389 10.5 14.2514 10.5H18.0014C18.4139 10.5 18.7514 10.8375 18.7514 11.25V14.25Z" fill="black"/>
</svg>

<svg width="25" height="24" viewBox="0 0 25 24" fill="none" xmlns="http://www.w3.org/2000/svg"><path d="M23.761 10.703 12.511.203a.743.743 0 0 0-1.02 0l-11.25 10.5a.74.74 0 0 0-.037 1.057.74.74 0 0 0 1.057.037l1.74-1.62V23.25c0 .413.338.75.75.75h2.625v-6.75c0-.413.338-.75.75-.75h3.75c.413 0 .75.337.75.75V24h8.625c.413 0 .75-.337.75-.75V10.178l1.74 1.62a.746.746 0 0 0 1.058-.038.74.74 0 0 0-.038-1.057Zm-5.01 3.547c0 .412-.337.75-.75.75h-3.75a.752.752 0 0 1-.75-.75v-3c0-.412.338-.75.75-.75h3.75c.413 0 .75.338.75.75v3Z" fill="currentColor"/></svg>
